X:1
T:Day of Glory, 76.76 D
T:Day of Glory, 76.76 D
T:Charles Wood
T:Public Domain Courtesy of the Cyber Hymnal™
C:Charles Wood
Z:Public Domain
Z:Courtesy of the Cyber Hymnal™
%%score ( 1 2 ) 3
L:1/8
Q:1/4=107
M:3/4
K:C
V:1 treble 
V:2 treble 
V:3 bass 
V:1
 A2 | [Ae]3 [Ae] B[Ac] | [Ad]2 [Ad]3 A | c3 z d[AB][^Gc] | A4 A2 | [Ae]3 [Ae] B[Ac] | %6
 [Ad]2 [Ad]3 A | c3 z d[AB][^Gc] | A4 [EA]2 | [EB]3 [E^G] [EA][EB] | [Ec]2 [Ec]2 z [EA] | %11
 [Dd]3 [Dc] [FB][FA] | [E^G]4 [EA]2 | [EB]3 [E^G] [^FA][GB] | [Ac]2 [Ac]2 z [EA] | %15
 [FB]3 [FA] [EA][E^G] | !fermata![CA]4 |] %17
V:2
 A2 | x4 B x | x5 A | A2 A2 x3 | A4 A2 | x4 B x | x5 A | A2 A2 x3 | A4 x2 | x6 | x6 | x6 | x6 | %13
 x6 | x6 | x6 | x4 |] %17
V:3
 [A,C]2 | [CE]3 [A,C] [^G,E][A,E] | [D,F]2 [D,F]3 [F,D] | [A,E]2 [D,F]2 [E,E][E,E] x | %4
 [A,C]4 [A,C]2 | [CE]3 [A,C] [^G,E][A,E] | [D,F]2 [D,F]3 [F,D] | [A,E]2 [D,F]2 [E,E][E,E] x | %8
 [A,C]4 [A,,C]2 | [E,^G,]3 [D,B,] [C,A,][B,,G,] | [A,,A,]2 [A,,A,]2 z [C,A,] | %11
 [F,A,]3 [F,A,] [D,D][D,C] | [E,B,]4 [A,C]2 | [^G,B,]3 [E,B,] [E,E][D,E] | [C,E]2 [A,,E]2 z [C,E] | %15
 [D,D]3 [D,D] [E,B,][E,B,] | !fermata![A,,A,]4 |] %17

